src/components/00-materials/images-raw/Bank Euro.svg

<svg width="96" height="96" viewBox="0 0 96 96" fill="none" xmlns="http://www.w3.org/2000/svg">
<path d="M19 73V68H77V73M24 68L25 38L24 68ZM31 38L32 68L31 38ZM51 38L52 68L51 38ZM44 68L45 38L44 68Z" stroke="#00008F" stroke-width="2" stroke-linecap="round" stroke-linejoin="round"/>
<path d="M48 28C49.6569 28 51 26.6569 51 25C51 23.3431 49.6569 22 48 22C46.3431 22 45 23.3431 45 25C45 26.6569 46.3431 28 48 28Z" stroke="#00008F" stroke-width="2" stroke-linecap="round" stroke-linejoin="round"/>
<path d="M19 33V38H59.29M15 73H81V78H15V73Z" stroke="#00008F" stroke-width="2" stroke-linecap="round" stroke-linejoin="round"/>
<path d="M71 45C78.1797 45 84 39.1797 84 32C84 24.8203 78.1797 19 71 19C63.8203 19 58 24.8203 58 32C58 39.1797 63.8203 45 71 45Z" stroke="#00008F" stroke-width="2" stroke-linecap="round" stroke-linejoin="round"/>
<path d="M64 30H71M64 34H71M75 26.56C74.5581 26.0803 74.0239 25.6948 73.4293 25.4267C72.8347 25.1586 72.1921 25.0135 71.54 25C68.48 25 66 28.13 66 32C66 35.87 68.48 39 71.54 39C72.1921 38.9865 72.8347 38.8414 73.4293 38.5733C74.0239 38.3052 74.5581 37.9197 75 37.44M72 68L71.1 44.99M65.02 43.55L64 68M58 32C57.9898 28.951 59.0517 25.9954 61 23.65L48 16L19 33H58.05C58 32.67 58 32.34 58 32Z" stroke="#00008F" stroke-width="2" stroke-linecap="round" stroke-linejoin="round"/>
</svg>

<svg width="96" height="96" viewBox="0 0 96 96" fill="none" xmlns="http://www.w3.org/2000/svg"><path d="M19 73v-5h58v5m-53-5l1-30-1 30zm7-30l1 30-1-30zm20 0l1 30-1-30zm-7 30l1-30-1 30zM48 28a3 3 0 100-6 3 3 0 000 6zM19 33v5h40.29M15 73h66v5H15v-5z" stroke="#00008F" stroke-width="2" stroke-linecap="round" stroke-linejoin="round"/><path d="M71 45c7.18 0 13-5.82 13-13s-5.82-13-13-13-13 5.82-13 13 5.82 13 13 13z" stroke="#00008F" stroke-width="2" stroke-linecap="round" stroke-linejoin="round"/><path d="M64 30h7m-7 4h7m4-7.44A4.841 4.841 0 0071.54 25C68.48 25 66 28.13 66 32s2.48 7 5.54 7A4.84 4.84 0 0075 37.44M72 68l-.9-23.01m-6.08-1.44L64 68m-6-36a13 13 0 013-8.35L48 16 19 33h39.05c-.05-.33-.05-.66-.05-1z" stroke="#00008F" stroke-width="2" stroke-linecap="round" stroke-linejoin="round"/></svg>
